X:1
T:The Dancer in the Tower
M:C|
L:1/8
C:T. S. Macdonald
K:D
%%text Slowish
f>g | a>fd<A B2 g>f | e<ag>f e2 f>g | a>fd<A f>dA<F | E/D/E/F/ G/F/E/D/ E2 f>g | a>fd<A B2 g>f | e>fg<a b2 g>a | (3 bge (3 afd (3 gag (3 fed | e<Ac>A d2 ||
F>E | D<df>g a2 (3 fed | B>GD<B, G,2 G>F | E<ee>f g2 a>b | (3 agf (3 gfe f2 F>E | D<df>g a2 g>f | e>fg<a b2 g>a | (3 bge (3 afd (3 gag (3 fed | e<Ac>A d2 |]

